Simply-Blue-Circles/scalable/apps/tuxtype.svg

<svg xmlns="http://www.w3.org/2000/svg" width="48" height="48" viewBox="0 0 12.7 12.7"><path d="M6.34.07a6.29 6.29 0 0 0-6.29 6.3 6.29 6.29 0 0 0 6.3 6.28 6.29 6.29 0 0 0 6.28-6.29A6.29 6.29 0 0 0 6.34.07zM6.32 1l.01.01a5.4 5.4 0 0 1 5.4 5.4 5.4 5.4 0 0 1-5.4 5.41 5.4 5.4 0 0 1-5.41-5.4A5.4 5.4 0 0 1 6.32 1zm.22.85h-.18C4.79 1.99 5.2 3.64 5.19 4.2a2 2 0 0 1-.4 1.12 5.53 5.53 0 0 0-1 1.67 2 2 0 0 0-.1.92.69.69 0 0 0-.05.04c-.1.1-.16.23-.24.31-.08.07-.18.1-.3.14a.53.53 0 0 0-.32.25.45.45 0 0 0-.04.22c0 .07 0 .14.02.2.02.14.04.27.01.36-.1.25-.1.43-.04.55.07.13.2.18.35.22.3.06.7.04 1.03.21.34.18.69.25.96.18.2-.04.37-.16.45-.35.22 0 .46-.1.84-.11.26-.02.58.09.95.07l.04.12a.7.7 0 0 0 .7.4c.29-.03.6-.2.84-.49l-.05-.04.05.04c.23-.28.62-.4.88-.56.13-.07.23-.17.24-.31 0-.14-.08-.3-.27-.51-.06-.08-.09-.2-.12-.35-.03-.14-.07-.29-.18-.38a.47.47 0 0 0-.15-.09 2 2 0 0 0-.06-1.37 4.6 4.6 0 0 0-.8-1.28c-.3-.38-.59-.73-.58-1.25 0-.8.09-2.27-1.31-2.27zm.18 1.22c.08 0 .15.03.22.08a.5.5 0 0 1 .17.2c.04.09.06.18.06.28a.67.67 0 0 1-.14.42A2.6 2.6 0 0 0 6.9 4l-.08-.02c.02-.03.06-.05.07-.09.02-.04.03-.1.03-.15 0-.06 0-.1-.02-.16a.28.28 0 0 0-.07-.11.14.14 0 0 0-.1-.05.15.15 0 0 0-.1.04.28.28 0 0 0-.08.11.46.46 0 0 0-.03.25 1.13 1.13 0 0 0-.22-.07v-.09c0-.11.01-.2.05-.3a.5.5 0 0 1 .16-.2.35.35 0 0 1 .22-.08zm-1.08.09c.05 0 .1.02.15.06.05.04.09.1.12.17.04.07.06.15.06.24v.1a.66.66 0 0 0-.18.09.42.42 0 0 0-.03-.22.23.23 0 0 0-.06-.1.1.1 0 0 0-.07-.02c-.03 0-.05.01-.07.04a.23.23 0 0 0-.05.1.4.4 0 0 0 .02.26.23.23 0 0 0 .08.1l-.07.05-.04.03a.45.45 0 0 1-.1-.15.68.68 0 0 1-.06-.24c0-.1 0-.17.03-.25a.43.43 0 0 1 .1-.19.23.23 0 0 1 .17-.07zm.5.62c.12 0 .26.04.44.16.11.07.2.07.4.16.09.04.14.09.17.14a.2.2 0 0 1 0 .17c-.04.12-.19.25-.39.31-.1.04-.18.1-.29.17-.1.05-.21.1-.37.1a.48.48 0 0 1-.28-.12c-.08-.06-.14-.13-.23-.18-.15-.09-.23-.18-.26-.27-.02-.08 0-.15.08-.2l.17-.14.07-.05c.06-.06.16-.17.31-.22.05-.02.1-.03.17-.03zm-.16.15h-.06c-.02.02-.06.03-.05.06l.05.02c.02 0 .03-.02.05-.03.02 0 .05 0 .06-.03l-.01-.02h-.04zm.3 0h-.03l-.02.02c.01.02.05.02.07.03.01.01.03.03.05.03.02 0 .04 0 .05-.02 0-.03-.04-.04-.06-.05a.15.15 0 0 0-.06-.01zm.66.32c-.04 0-.04.04-.1.08l-.24.17a1.2 1.2 0 0 1-.52.18.7.7 0 0 1-.43-.17l-.13-.12c-.03-.02-.03-.08-.08-.08-.02 0-.03.06.03.11l.14.12c.11.1.27.19.47.19.2 0 .4-.1.55-.19.09-.04.2-.12.26-.18.07-.06.1-.1.05-.11zm.23.28c.13.53.44 1.28.64 1.65.1.2.32.62.4 1.12.07 0 .13 0 .2.03.24-.62-.2-1.29-.4-1.47-.09-.08-.09-.12-.05-.11.22.19.5.58.61 1.02.05.2.06.4 0 .61l.08.04c.38.18.53.35.46.57h-.07c.05-.18-.07-.3-.4-.46-.34-.14-.6-.13-.65.17l-.01.05a.52.52 0 0 0-.08.04c-.16.08-.24.24-.3.43-.04.2-.05.43-.07.7 0 .13-.06.3-.11.5-.56.4-1.33.56-1.98.12a2.91 2.91 0 0 0-.25-.34c.06 0 .12-.01.17-.03.05-.03.1-.07.11-.12.04-.11 0-.26-.12-.44a2.34 2.34 0 0 0-.67-.56.94.94 0 0 1-.42-.52c-.06-.19-.05-.4 0-.6.08-.4.32-.79.46-1.03.04-.03.02.06-.15.36-.14.28-.42.92-.04 1.43a3 3 0 0 1 .24-1.07c.2-.47.64-1.3.68-1.95l.1.07c.09.05.15.12.22.18a.54.54 0 0 0 .37.13c.15 0 .27-.05.37-.1.1-.07.19-.14.27-.16.17-.06.31-.15.39-.26zM6.33 6c-.12 0-.25.02-.38.04l-.4.12v.35a1.52 1.52 0 0 1 .74-.19c.2 0 .37.05.48.14.11.1.17.23.17.4v.04h-.53c-.34 0-.6.07-.77.2-.17.13-.25.32-.25.58 0 .22.07.4.2.53.14.13.33.2.56.2.19 0 .34-.04.47-.1A.83.83 0 0 0 6.94 8v.34h.37v-1.3c0-.35-.08-.6-.24-.78-.16-.17-.41-.26-.74-.26zm.24 1.2h.37v.08c0 .24-.06.44-.19.59a.62.62 0 0 1-.5.22.52.52 0 0 1-.36-.12.4.4 0 0 1-.13-.32c0-.16.06-.28.18-.35.11-.07.32-.1.63-.1zm1.4.67c.02.23.13.46.33.5.22.07.53-.12.67-.27h.07c.12 0 .22 0 .32.08.08.07.11.2.14.33.04.14.06.29.16.4.18.2.24.33.23.42 0 .09-.07.15-.18.22-.24.14-.65.27-.91.59-.23.27-.51.42-.76.44a.57.57 0 0 1-.58-.34c-.08-.15-.05-.38.02-.62.06-.25.16-.5.17-.7.01-.27.03-.5.07-.68.05-.17.12-.3.24-.36l.02-.01zm-4 .02a.4.4 0 0 1 .07 0c.14.02.26.12.38.28l.33.61c.1.2.28.4.44.61.17.21.29.42.27.58-.02.28-.17.43-.41.49-.24.05-.57 0-.89-.17-.36-.2-.78-.17-1.06-.23-.13-.03-.22-.07-.26-.15-.04-.08-.05-.22.04-.46.05-.13.01-.28 0-.41-.03-.14-.04-.26 0-.35.07-.12.16-.16.26-.2.11-.03.24-.06.34-.17.1-.1.17-.22.25-.3.07-.08.14-.13.24-.13z" fill="#2c89a0"/></svg>

<?xml version="1.0" encoding="UTF-8" standalone="no"?>
<svg
   xmlns:dc="http://purl.org/dc/elements/1.1/"
   xmlns:cc="http://creativecommons.org/ns#"
   xmlns:rdf="http://www.w3.org/1999/02/22-rdf-syntax-ns#"
   xmlns:svg="http://www.w3.org/2000/svg"
   xmlns="http://www.w3.org/2000/svg"
   xmlns:sodipodi="http://sodipodi.sourceforge.net/DTD/sodipodi-0.dtd"
   xmlns:inkscape="http://www.inkscape.org/namespaces/inkscape"
   width="48"
   height="48"
   viewBox="0 0 12.7 12.7"
   version="1.1"
   id="svg4"
   sodipodi:docname="tuxtype.svg"
   inkscape:version="0.92.4 (5da689c313, 2019-01-14)">
  <metadata
     id="metadata10">
    <rdf:RDF>
      <cc:Work
         rdf:about="">
        <dc:format>image/svg+xml</dc:format>
        <dc:type
           rdf:resource="http://purl.org/dc/dcmitype/StillImage" />
        <dc:title></dc:title>
      </cc:Work>
    </rdf:RDF>
  </metadata>
  <defs
     id="defs8" />
  <sodipodi:namedview
     pagecolor="#ffffff"
     bordercolor="#666666"
     borderopacity="1"
     objecttolerance="10"
     gridtolerance="10"
     guidetolerance="10"
     inkscape:pageopacity="0"
     inkscape:pageshadow="2"
     inkscape:window-width="1087"
     inkscape:window-height="480"
     id="namedview6"
     showgrid="false"
     inkscape:zoom="4.9166667"
     inkscape:cx="2.1355932"
     inkscape:cy="24"
     inkscape:window-x="0"
     inkscape:window-y="25"
     inkscape:window-maximized="0"
     inkscape:current-layer="svg4" />
  <path
     d="M 6.34,0.07 A 6.29,6.29 0 0 0 0.05,6.37 6.29,6.29 0 0 0 6.35,12.65 6.29,6.29 0 0 0 12.63,6.36 6.29,6.29 0 0 0 6.34,0.07 Z M 6.32,1 6.33,1.01 a 5.4,5.4 0 0 1 5.4,5.4 5.4,5.4 0 0 1 -5.4,5.41 A 5.4,5.4 0 0 1 0.92,6.42 5.4,5.4 0 0 1 6.32,1 Z M 6.54,1.85 H 6.36 C 4.79,1.99 5.2,3.64 5.19,4.2 a 2,2 0 0 1 -0.4,1.12 5.53,5.53 0 0 0 -1,1.67 2,2 0 0 0 -0.1,0.92 0.69,0.69 0 0 0 -0.05,0.04 C 3.54,8.05 3.48,8.18 3.4,8.26 3.32,8.33 3.22,8.36 3.1,8.4 A 0.53,0.53 0 0 0 2.78,8.65 0.45,0.45 0 0 0 2.74,8.87 c 0,0.07 0,0.14 0.02,0.2 0.02,0.14 0.04,0.27 0.01,0.36 -0.1,0.25 -0.1,0.43 -0.04,0.55 0.07,0.13 0.2,0.18 0.35,0.22 0.3,0.06 0.7,0.04 1.03,0.21 0.34,0.18 0.69,0.25 0.96,0.18 0.2,-0.04 0.37,-0.16 0.45,-0.35 0.22,0 0.46,-0.1 0.84,-0.11 0.26,-0.02 0.58,0.09 0.95,0.07 l 0.04,0.12 a 0.7,0.7 0 0 0 0.7,0.4 c 0.29,-0.03 0.6,-0.2 0.84,-0.49 L 8.84,10.19 8.89,10.23 C 9.12,9.95 9.51,9.83 9.77,9.67 9.9,9.6 10,9.5 10.01,9.36 10.01,9.22 9.93,9.06 9.74,8.85 9.68,8.77 9.65,8.65 9.62,8.5 9.59,8.36 9.55,8.21 9.44,8.12 A 0.47,0.47 0 0 0 9.29,8.03 2,2 0 0 0 9.23,6.66 4.6,4.6 0 0 0 8.43,5.38 C 8.13,5 7.84,4.65 7.85,4.13 7.85,3.33 7.94,1.86 6.54,1.86 Z m 0.18,1.22 c 0.08,0 0.15,0.03 0.22,0.08 a 0.5,0.5 0 0 1 0.17,0.2 C 7.15,3.44 7.17,3.53 7.17,3.63 A 0.67,0.67 0 0 1 7.03,4.05 2.6,2.6 0 0 0 6.9,4 L 6.82,3.98 C 6.84,3.95 6.88,3.93 6.89,3.89 6.91,3.85 6.92,3.79 6.92,3.74 6.92,3.68 6.92,3.64 6.9,3.58 A 0.28,0.28 0 0 0 6.83,3.47 0.14,0.14 0 0 0 6.73,3.42 0.15,0.15 0 0 0 6.63,3.46 0.28,0.28 0 0 0 6.55,3.57 0.46,0.46 0 0 0 6.52,3.82 1.13,1.13 0 0 0 6.3,3.75 V 3.66 c 0,-0.11 0.01,-0.2 0.05,-0.3 A 0.5,0.5 0 0 1 6.51,3.16 0.35,0.35 0 0 1 6.73,3.08 Z M 5.64,3.16 c 0.05,0 0.1,0.02 0.15,0.06 0.05,0.04 0.09,0.1 0.12,0.17 0.04,0.07 0.06,0.15 0.06,0.24 v 0.1 A 0.66,0.66 0 0 0 5.79,3.82 0.42,0.42 0 0 0 5.76,3.6 0.23,0.23 0 0 0 5.7,3.5 0.1,0.1 0 0 0 5.63,3.48 C 5.6,3.48 5.58,3.49 5.56,3.52 a 0.23,0.23 0 0 0 -0.05,0.1 0.4,0.4 0 0 0 0.02,0.26 0.23,0.23 0 0 0 0.08,0.1 L 5.54,4.03 5.5,4.06 A 0.45,0.45 0 0 1 5.4,3.91 0.68,0.68 0 0 1 5.34,3.67 c 0,-0.1 0,-0.17 0.03,-0.25 A 0.43,0.43 0 0 1 5.47,3.23 0.23,0.23 0 0 1 5.64,3.16 Z m 0.5,0.62 c 0.12,0 0.26,0.04 0.44,0.16 0.11,0.07 0.2,0.07 0.4,0.16 0.09,0.04 0.14,0.09 0.17,0.14 a 0.2,0.2 0 0 1 0,0.17 C 7.11,4.53 6.96,4.66 6.76,4.72 6.66,4.76 6.58,4.82 6.47,4.89 6.37,4.94 6.26,4.99 6.1,4.99 A 0.48,0.48 0 0 1 5.82,4.87 C 5.74,4.81 5.68,4.74 5.59,4.69 5.44,4.6 5.36,4.51 5.33,4.42 5.31,4.34 5.33,4.27 5.41,4.22 L 5.58,4.08 5.65,4.03 C 5.71,3.97 5.81,3.86 5.96,3.81 6.01,3.79 6.06,3.78 6.13,3.78 Z M 5.98,3.93 H 5.92 C 5.9,3.95 5.86,3.96 5.87,3.99 l 0.05,0.02 c 0.02,0 0.03,-0.02 0.05,-0.03 0.02,0 0.05,0 0.06,-0.03 L 6.02,3.93 Z m 0.3,0 H 6.25 L 6.23,3.95 c 0.01,0.02 0.05,0.02 0.07,0.03 0.01,0.01 0.03,0.03 0.05,0.03 0.02,0 0.04,0 0.05,-0.02 C 6.4,3.96 6.36,3.95 6.34,3.94 A 0.15,0.15 0 0 0 6.28,3.93 Z M 6.94,4.25 C 6.9,4.25 6.9,4.29 6.84,4.33 L 6.6,4.5 A 1.2,1.2 0 0 1 6.08,4.68 0.7,0.7 0 0 1 5.65,4.51 L 5.52,4.39 C 5.49,4.37 5.49,4.31 5.44,4.31 5.42,4.31 5.41,4.37 5.47,4.42 l 0.14,0.12 c 0.11,0.1 0.27,0.19 0.47,0.19 0.2,0 0.4,-0.1 0.55,-0.19 C 6.72,4.5 6.83,4.42 6.89,4.36 6.96,4.3 6.99,4.26 6.94,4.25 Z m 0.23,0.28 c 0.13,0.53 0.44,1.28 0.64,1.65 0.1,0.2 0.32,0.62 0.4,1.12 0.07,0 0.13,0 0.2,0.03 C 8.65,6.71 8.21,6.04 8.01,5.86 7.92,5.78 7.92,5.74 7.96,5.75 c 0.22,0.19 0.5,0.58 0.61,1.02 0.05,0.2 0.06,0.4 0,0.61 L 8.65,7.42 C 9.03,7.6 9.18,7.77 9.11,7.99 H 9.04 C 9.09,7.81 8.97,7.69 8.64,7.53 8.3,7.39 8.04,7.4 7.99,7.7 L 7.98,7.75 A 0.52,0.52 0 0 0 7.9,7.79 C 7.74,7.87 7.66,8.03 7.6,8.22 7.56,8.42 7.55,8.65 7.53,8.92 7.53,9.05 7.47,9.22 7.42,9.42 6.86,9.82 6.09,9.98 5.44,9.54 A 2.91,2.91 0 0 0 5.19,9.2 C 5.25,9.2 5.31,9.19 5.36,9.17 5.41,9.14 5.46,9.1 5.47,9.05 5.51,8.94 5.47,8.79 5.35,8.61 A 2.34,2.34 0 0 0 4.68,8.05 0.94,0.94 0 0 1 4.26,7.53 C 4.2,7.34 4.21,7.13 4.26,6.93 4.34,6.53 4.58,6.14 4.72,5.9 4.76,5.87 4.74,5.96 4.57,6.26 4.43,6.54 4.15,7.18 4.53,7.69 A 3,3 0 0 1 4.77,6.62 C 4.97,6.15 5.41,5.32 5.45,4.67 l 0.1,0.07 C 5.64,4.79 5.7,4.86 5.77,4.92 A 0.54,0.54 0 0 0 6.14,5.05 C 6.29,5.05 6.41,5 6.51,4.95 6.61,4.88 6.7,4.81 6.78,4.79 6.95,4.73 7.09,4.64 7.17,4.53 Z M 6.33,6 C 6.21,6 6.08,6.02 5.95,6.04 L 5.55,6.16 V 6.51 A 1.52,1.52 0 0 1 6.29,6.32 c 0.2,0 0.37,0.05 0.48,0.14 0.11,0.1 0.17,0.23 0.17,0.4 V 6.9 H 6.41 C 6.07,6.9 5.81,6.97 5.64,7.1 5.47,7.23 5.39,7.42 5.39,7.68 c 0,0.22 0.07,0.4 0.2,0.53 0.14,0.13 0.33,0.2 0.56,0.2 0.19,0 0.34,-0.04 0.47,-0.1 A 0.83,0.83 0 0 0 6.94,8 V 8.34 H 7.31 V 7.04 C 7.31,6.69 7.23,6.44 7.07,6.26 6.91,6.09 6.66,6 6.33,6 Z m 0.24,1.2 h 0.37 v 0.08 c 0,0.24 -0.06,0.44 -0.19,0.59 A 0.62,0.62 0 0 1 6.25,8.09 0.52,0.52 0 0 1 5.89,7.97 0.4,0.4 0 0 1 5.76,7.65 C 5.76,7.49 5.82,7.37 5.94,7.3 6.05,7.23 6.26,7.2 6.57,7.2 Z m 1.4,0.67 C 7.99,8.1 8.1,8.33 8.3,8.37 8.52,8.44 8.83,8.25 8.97,8.1 h 0.07 c 0.12,0 0.22,0 0.32,0.08 0.08,0.07 0.11,0.2 0.14,0.33 0.04,0.14 0.06,0.29 0.16,0.4 0.18,0.2 0.24,0.33 0.23,0.42 0,0.09 -0.07,0.15 -0.18,0.22 C 9.47,9.69 9.06,9.82 8.8,10.14 8.57,10.41 8.29,10.56 8.04,10.58 A 0.57,0.57 0 0 1 7.46,10.24 C 7.38,10.09 7.41,9.86 7.48,9.62 7.54,9.37 7.64,9.12 7.65,8.92 7.66,8.65 7.68,8.42 7.72,8.24 7.77,8.07 7.84,7.94 7.96,7.88 L 7.98,7.87 Z m -4,0.02 a 0.4,0.4 0 0 1 0.07,0 C 4.18,7.91 4.3,8.01 4.42,8.17 l 0.33,0.61 c 0.1,0.2 0.28,0.4 0.44,0.61 C 5.36,9.6 5.48,9.81 5.46,9.97 5.44,10.25 5.29,10.4 5.05,10.46 4.81,10.51 4.48,10.46 4.16,10.29 3.8,10.09 3.38,10.12 3.1,10.06 2.97,10.03 2.88,9.99 2.84,9.91 2.8,9.83 2.79,9.69 2.88,9.45 2.93,9.32 2.89,9.17 2.88,9.04 2.85,8.9 2.84,8.78 2.88,8.69 2.95,8.57 3.04,8.53 3.14,8.49 3.25,8.46 3.38,8.43 3.48,8.32 3.58,8.22 3.65,8.1 3.73,8.02 3.8,7.94 3.87,7.89 3.97,7.89 Z"
     id="path2"
     inkscape:connector-curvature="0"
     style="fill:#2c89a0" />
</svg>
